symbols/web/dynamic_form/materialsymbolsoutlined/dynamic_form_wght500fill1_20px.svg

<svg xmlns="http://www.w3.org/2000/svg" height="20" width="20"><path d="M3.458 9.125q-.812 0-1.396-.583-.583-.584-.583-1.396V5.083q0-.812.583-1.395.584-.584 1.396-.584h7.209v6.021Zm0 7.771q-.812 0-1.396-.584-.583-.583-.583-1.395v-2.063q0-.812.583-1.396.584-.583 1.396-.583h8.959v6.021Zm10.709 0V9.125h-1.75V3.104H18.5l-1.667 4.438h1.688ZM3.833 14.542h1.292V13.25H3.833Zm0-7.792h1.292V5.458H3.833Z"/></svg>

<svg xmlns="http://www.w3.org/2000/svg" height="20" width="20"><path d="M3.458 9.125Q2.646 9.125 2.062 8.542Q1.479 7.958 1.479 7.146V5.083Q1.479 4.271 2.062 3.688Q2.646 3.104 3.458 3.104H10.667V9.125ZM3.458 16.896Q2.646 16.896 2.062 16.312Q1.479 15.729 1.479 14.917V12.854Q1.479 12.042 2.062 11.458Q2.646 10.875 3.458 10.875H12.417V16.896ZM14.167 16.896V9.125H12.417V3.104H18.5L16.833 7.542H18.521ZM3.833 14.542H5.125V13.25H3.833ZM3.833 6.75H5.125V5.458H3.833Z"/></svg>
